X:1
T:Sweet is the memory of thy grace
T:Sweet is the memory of thy grace - Helstone (Almond Woolf)
C:Almond Woolf
Z:Text: Isaac Watts, on Ps. 145
%%score [ 1 2 3 4 ]
L:1/8
M:6/8
K:G
V:1 treble nm="SOPRANO" snm="S."
V:2 treble nm="ALTO" snm="A."
V:3 treble-8 transpose=-12 nm="TENOR" snm="T."
V:4 bass nm="BASS" snm="B."
V:1
 d | (B>A)G (A>B)c | B2 A G2 A | (B>c)d c2 B | (B3 A2) d | d2 e d2 ^c | d3 z2 d | %7
w: With|long- * ing eyes _ thy|crea- tures wait On|thee _ for dai- ly|food, _ on|thee for dai- ly|food; Thy|
w: Sweet|is _ the mem- * ’ry|of thy grace, My|God, _ my heav’n- ly|King, _ my|God, my heav’n- ly|King; Let|
w: God|reigns _ on high, _ but|not con- fines His|good- * ness to the|skies, _ his|good- ness to the|skies; Through|
 (d>c)B A2 (G/B/) | (d/e/d/c/)(B/c/) A2!p! D | (G>A)B (A>B)c | B3- B2!p! A | (B>c)d (c>d)e | %12
w: lib- * ’ral hand pro- *|vides _ _ _ their _ meat, And|fills _ their mouths _ with|good, _ and|fills _ their mouths _ with|
w: age _ to age thy _|right- * * * eous- * ness In|sounds _ of glo- * ry|sing, _ in|sounds _ of glo- * ry|
w: the _ whole earth his _|boun- * * * ty _ shines, And|ev- * ’ry want _ sup-|plies, _ and|ev- * ’ry want _ sup-|
 d3- d2!f! d | (e>d)c (B>c)A | G3- G2 |] %15
w: good, _ and|fills _ their mouths _ with|good. _|
w: sing, _ in|sounds _ of glo- * ry|sing. _|
w: plies, _ and|ev- * ’ry want _ sup-|plies. _|
V:2
 G | (D>C)B, D2 D | D2 D [B,D]2 F | G2 G D2 D | D3- D2 F | D2 G F2 E | F3 z2 G | D2 D D2 D | %8
w: With|long- * ing eyes thy|crea- tures wait On|thee for dai- ly|food, _ on|thee for dai- ly|food; Thy|lib- ’ral hand pro-|
w: Sweet|is _ the mem- ’ry|of thy grace, My|God, my heav’n- ly|King, _ my|God, my heav’n- ly|King; Let|age to age thy|
w: God|reigns _ on high, but|not con- fines His|good- ness to the|skies, _ his|good- ness to the|skies; Through|the whole earth his|
 G2 D D2!p! D | (B,>D)G (F>G)A | G3- G2 z | z6 | z3 z2!f! G | G2 E D2 D | [B,D]3- [B,D]2 |] %15
w: vides their meat, And|fills _ their mouths _ with|good, _||and|fills their mouths with|good. _|
w: right- eous- ness In|sounds _ of glo- * ry|sing, _||in|sounds of glo- ry|sing. _|
w: boun- ty shines, And|ev- * ’ry want _ sup-|plies, _||and|ev- ’ry want sup-|plies. _|
V:3
 B | G2 G (F>G)A | G2 F G2 d | (d>c)B A2 G | (G3 F2) A | A2 (G/B/) A2 A | A3 z2 B | (B>A)G F2 G | %8
w: With|long- ing eyes _ thy|crea- tures wait On|thee _ for dai- ly|food, _ on|thee for _ dai- ly|food; Thy|lib- * ’ral hand pro-|
w: Sweet|is the mem- * ’ry|of thy grace, My|God, _ my heav’n- ly|King, _ my|God, my _ heav’n- ly|King; Let|age _ to age thy|
w: God|reigns on high, _ but|not con- fines His|good- * ness to the|skies, _ his|good- ness _ to the|skies; Through|the _ whole earth his|
 (B/c/B/A/)(G/A/) F2 z | z6 | z6 | z6 | z3 z2!f! B | (c>B)A (GA)F | G3- G2 |] %15
w: vides _ _ _ their _ meat,||||And|fills _ their mouths _ with|good. _|
w: right- * * * eous- * ness||||In|sounds _ of glo- * ry|sing. _|
w: boun- * * * ty _ shines,||||And|ev- * ’ry want _ sup-|plies. _|
V:4
 G, | G,2 G, D,2 D, | D,2 D, (G,,B,,)D, | G,2 G, F,2 G, | D,3- D,2 D, | F,2 G, A,2 A,, | %6
w: With|long- ing eyes thy|crea- tures wait _ On|thee for dai- ly|food, _ on|thee for dai- ly|
w: Sweet|is the mem- ’ry|of thy grace, _ My|God, my heav’n- ly|King, _ my|God, my heav’n- ly|
w: God|reigns on high, but|not con- fines _ His|good- ness to the|skies, _ his|good- ness to the|
 D,3 z2 G, | G,2 G, D,2 G, | G,2 G,, D,2 z | z6 | %10
w: food; Thy|lib- ’ral hand pro-|vides their meat,||
w: King; Let|age to age thy|right- eous- ness||
w: skies; Through|the whole earth his|boun- ty shines,||
"^Notes: The original order of staves (shown in the first piece in the book) is Tenor - Alto - Air - Bass: the alto and tenorparts are notated in the source in the treble clef an octave above sounding pitch.The first verse only of the text is given in the source: subsequent verses have here been added editorially." z3 z2!p! D, | %11
w: And|
w: In|
w: And|
 (G,>"^How kind are thy compassions, Lord!How slow thine anger moves!But soon he sends his pard’ning wordTo cheer the souls he loves.Creatures with all their endless raceThy pow’r and praise proclaim;But saints that taste thy richer graceDelight to bless thy name."A,)B, (A,>B,)C | %12
w: fills _ their mouths _ with|
w: sounds _ of glo- * ry|
w: ev- * ’ry want _ sup-|
 B,3- B,2!f! G, | G,2 C, D,2 D, | G,,3- G,,2 |] %15
w: good, _ and|fills their mouths with|good. _|
w: sing, _ in|sounds of glo- ry|sing. _|
w: plies, _ and|ev- ’ry want sup-|plies. _|

